X: 167
T: Shier yue jie qi
%%abc-version 2.0
%%abcx-abcm2ps-target-version 5.9.1 (29 Sep 2008)
%%abc-creator hum2abc beta
%%abcx-conversion-date 2013/10/02 07:44:27
%%abc-edited-by Helmut Schaffrath
%%humdrum-veritas 3129624513
%%humdrum-veritas-data 685248170
%%continueall 1
%%barnumbers 0
L: 1/4
M: 4/4
K: Bb
cB/ c/f2 [I:setbarnb 1]| 
[M:3/4]f/ d/cz | 
[M:4/4]ffcf | 
cBc/ d/f | 
dcB2- | 
B3z | 
fdf3/g/ | 
fcdz | 
fcBc | 
fdcB3// c// | 
dcB2- | 
B3z |]  



